X: 3
T: Paddy's Trip To Scotland
R: reel
M: 4/4
L: 1/8
K: Dmaj
(3ABc | dAA/A/A BAGF | [G2G,2](3Bcd cABc | dfed cABc | dfed cABc |
dAA/A/A BAGF | [GG,]A(3Bcd cABc | dfed cABc | dfec d2 :|
FG | Ad[fd]d Ad[fd]d | Ad[fd]d dcB^G | Ac[ec]c Ac[ec]c | Ac[ec]c dcB^G |
Ad[fd]d Ad[fd]d | Ad[fd]d dcB^g | aAA/A/A dcBA |(3Bcd ec d2 :|


Tune 1303	Setting 1303

